X:107
T:Wheatsheaf THO4.107, The
M:2/4
L:1/8
Z:vmp. Peter Dunk 2010/11.from a transcription by Fynn Titford-Mock 2007
B:Thompson's Compleat Collection of 200 Favourite Country Dances Volume IV.
Q:1/4=130
K:D
[f2A2D2] af|dcTBA|Bd c/d/e/c/|(d/c/d/e/) (d/c/d/e/)|\
[f2A2D2] af|dcTBA|Bd c/d/e/c/|d2 d2:|
|:[A2D2] AB|AdTcd| AdTcd|e/d/e/f/ ee|A2 AB|Adcd|Bd c/d/e/c/|{c}d2d2:|

